Sources/FrostedUI/Resources/Icons.xcassets/expand20.imageset/expand-20.svg

<svg width="20" height="20" viewBox="0 0 20 20" fill="none" xmlns="http://www.w3.org/2000/svg" data-fui-icon="true">
  <path
    d="M11.4697 11.4697C11.7626 11.1771 12.2375 11.177 12.5303 11.4697L17.2422 16.1826L17.2432 12.4775C17.2432 12.0633 17.579 11.7275 17.9932 11.7275C18.4072 11.7277 18.7432 12.0634 18.7432 12.4775L18.7422 17.9932C18.742 18.4072 18.4063 18.7422 17.9922 18.7422H12.4775C12.0635 18.7421 11.7278 18.4071 11.7275 17.9932C11.7276 17.579 12.0634 17.2432 12.4775 17.2432H16.1816L11.4697 12.5303C11.177 12.2375 11.1771 11.7626 11.4697 11.4697ZM7.52246 1.25781C7.93648 1.25788 8.27224 1.59285 8.27246 2.00684C8.27242 2.42097 7.93659 2.75676 7.52246 2.75684H3.81836L8.53027 7.46973C8.82303 7.76255 8.82292 8.23738 8.53027 8.53027C8.23738 8.82291 7.76254 8.82302 7.46973 8.53027L2.75781 3.81738L2.75684 7.52246C2.75684 7.93667 2.42105 8.27246 2.00684 8.27246C1.59278 8.27228 1.25684 7.93656 1.25684 7.52246L1.25781 2.00684C1.25803 1.59281 1.59374 1.25781 2.00781 1.25781H7.52246Z"
    fill="currentColor"
  />
</svg>

<svg xmlns="http://www.w3.org/2000/svg" width="20" height="20" fill="none" data-fui-icon="true" viewBox="0 0 20 20"><path fill="currentColor" d="M11.47 11.47a.75.75 0 0 1 1.06 0l4.712 4.713.001-3.706a.75.75 0 0 1 1.5 0v5.516a.75.75 0 0 1-.75.75h-5.515a.75.75 0 1 1 0-1.5h3.704L11.47 12.53a.75.75 0 0 1 0-1.06M7.522 1.258a.75.75 0 1 1 0 1.499H3.818L8.53 7.47a.75.75 0 0 1-1.06 1.06L2.758 3.817l-.001 3.705a.75.75 0 0 1-1.5 0V2.007a.75.75 0 0 1 .75-.75z"/></svg>
